public/images/logos/porsche.svg

<?xml version="1.0" encoding="UTF-8" standalone="no"?>

<svg
   xmlns:svg="http://www.w3.org/2000/svg"
   xmlns="http://www.w3.org/2000/svg"
   version="1.0"
   width="921.25983"
   height="96.377953"
   id="svg6264">
  <defs
     id="defs6266" />
  <g
     transform="translate(-7.9127794,-477.28393)"
     id="layer1">
    <g
       transform="matrix(1.0020789,0,0,1.0020789,17.700061,16.641431)"
       id="g6548">
      <path
         d="M 108.32434,477.49371 L 7.9127791,477.477 L 7.9127791,538.02467 L 21.111699,538.02467 L 21.111699,522.08574 L 108.32434,522.08574 C 115.84263,522.08574 121.69028,516.12127 121.69028,508.70316 L 121.85731,490.84294 C 121.85731,483.42483 115.84263,477.49371 108.32434,477.49371 z M 108.49136,506.54785 C 108.49136,507.68399 107.48898,508.75329 106.48652,508.77 L 21.111699,508.77 L 21.111699,490.79281 L 106.1524,490.82623 C 107.48898,490.82623 108.49136,491.87874 108.49136,493.13186 L 108.49136,506.54785"
         style="fill:#af0342;fill-rule:nonzero;stroke:none;stroke-width:0.28299999;stroke-linecap:butt;stroke-linejoin:miter;stroke-miterlimit:3.86400008;stroke-dasharray:none"
         id="path11699" />
      <path
         d="M 249.5019,490.84294 L 249.5019,490.84294 C 249.5019,483.50839 243.65432,477.49371 236.30306,477.49371 C 236.30306,477.49371 236.30306,477.49371 236.30306,477.49371 L 150.92824,477.49371 C 143.57697,477.49371 137.39519,483.45825 137.39519,490.87636 L 137.39519,524.69215 C 137.39519,532.11025 143.57697,538.04138 150.92824,538.04138 L 236.13604,538.04138 C 243.48722,538.04138 249.5019,532.07683 249.5019,524.64202 L 249.5019,490.84294 z M 236.13604,522.50349 C 236.13604,523.65627 235.13358,524.72557 234.13112,524.72557 L 152.59895,524.72557 C 151.76359,524.72557 150.76113,523.97368 150.76113,523.0882 L 150.76113,492.68076 C 150.76113,491.66159 151.9307,490.80952 153.10018,490.80952 L 233.96401,490.82623 C 235.13358,490.82623 236.13604,491.87874 236.13604,493.11515 L 236.13604,522.50349"
         style="fill:#af0342;fill-rule:nonzero;stroke:none;stroke-width:0.28299999;stroke-linecap:butt;stroke-linejoin:miter;stroke-miterlimit:3.86400008;stroke-dasharray:none"
         id="path11701" />
      <path
         d="M 540.87916,490.80952 L 635.10896,490.80952 L 635.10896,477.49371 L 538.70726,477.49371 C 531.35596,477.49371 525.17416,483.45825 525.17416,490.87636 L 525.17416,524.69215 C 525.17416,532.11025 531.18886,538.14156 538.54016,538.14156 L 635.10896,538.04138 L 635.10896,524.72557 L 540.37796,524.72557 C 539.54256,524.72557 538.70726,523.99039 538.70726,523.0882 L 538.70726,492.68076 C 538.70726,491.66159 539.70956,490.80952 540.87916,490.80952"
         style="fill:#af0342;fill-rule:nonzero;stroke:none;stroke-width:0.28299999;stroke-linecap:butt;stroke-linejoin:miter;stroke-miterlimit:3.86400008;stroke-dasharray:none"
         id="path11703" />
      <path
         d="M 366.95503,517.40772 C 374.1392,517.15707 379.81975,511.24265 379.81975,503.97494 L 379.81975,490.84294 C 379.81975,483.44154 373.80507,477.52713 366.4538,477.49371 L 366.4538,477.477 L 265.54102,477.46029 L 265.54102,538.00796 L 278.90696,538.00796 L 278.90696,522.08574 L 353.08786,522.08574 C 360.43913,522.08574 366.4538,528.11713 366.4538,535.53523 L 366.4538,537.92441 L 379.98677,537.92441 L 379.98677,537.75731 C 379.98677,528.73533 374.64043,520.94967 366.95503,517.40772 z M 366.4538,506.54785 L 366.4538,506.54785 C 366.4538,507.68399 365.61845,508.75329 364.44888,508.77 L 278.90696,508.77 L 278.90696,490.79281 L 364.11476,490.82623 C 365.45134,490.82623 366.4538,491.87874 366.4538,493.13186 L 366.4538,506.54785"
         style="fill:#af0342;fill-rule:nonzero;stroke:none;stroke-width:0.28299999;stroke-linecap:butt;stroke-linejoin:miter;stroke-miterlimit:3.86400008;stroke-dasharray:none"
         id="path11705" />
      <path
         d="M 509.30216,515.56991 C 509.30216,508.16851 503.28748,502.12041 495.93621,502.12041 L 410.89552,502.13712 C 409.72596,502.13712 408.72358,501.28506 408.72358,500.04873 L 408.72358,490.97654 C 408.72358,489.74022 409.72596,488.82131 410.89552,488.82131 L 507.29724,488.82131 L 507.29724,477.52713 L 408.38937,477.52713 C 401.03811,477.52713 395.35763,483.64199 395.35763,490.97654 L 395.35763,500.04873 C 395.35763,507.48347 401.37231,513.49815 408.72358,513.49815 L 493.76427,513.48144 C 494.93376,513.48144 495.93621,514.3335 495.93621,515.56991 L 495.93621,524.67544 C 495.93621,525.92847 494.93376,526.76383 493.76427,526.76383 L 397.19545,526.76383 L 397.19545,538.0748 L 495.93621,538.0748 C 503.28748,538.0748 509.30216,532.07683 509.30216,524.67544 L 509.30216,515.56991"
         style="fill:#af0342;fill-rule:nonzero;stroke:none;stroke-width:0.28299999;stroke-linecap:butt;stroke-linejoin:miter;stroke-miterlimit:3.86400008;stroke-dasharray:none"
         id="path11707" />
      <path
         d="M 744.87656,477.41016 L 744.87656,502.03686 L 663.84566,502.03686 L 663.84566,477.41016 L 650.64686,477.41016 L 650.64686,537.95783 L 663.84566,537.95783 L 663.84566,515.35267 L 744.87656,515.35267 L 744.87656,537.95783 L 758.24256,537.95783 L 758.24256,477.41016 L 744.87656,477.41016"
         style="fill:#af0342;fill-rule:nonzero;stroke:none;stroke-width:0.28299999;stroke-linecap:butt;stroke-linejoin:miter;stroke-miterlimit:3.86400008;stroke-dasharray:none"
         id="path11711" />
      <path
         d="M 891.90186,488.82131 L 891.90186,477.51042 L 773.94756,477.51042 L 773.94756,538.0748 L 891.90186,538.0748 L 891.90186,526.76383 L 787.31336,526.76383 L 787.31336,513.44802 L 891.90186,513.44802 L 891.90186,502.13712 L 787.31336,502.13712 L 787.31336,488.82131 L 891.90186,488.82131"
         style="fill:#af0342;fill-rule:nonzero;stroke:none;stroke-width:0.28299999;stroke-linecap:butt;stroke-linejoin:miter;stroke-miterlimit:3.86400008;stroke-dasharray:none"
         id="path11713" />
    </g>
  </g>
</svg>

<svg xmlns="http://www.w3.org/2000/svg" width="921.26" height="96.378"><path d="m108.324 477.494-100.411-.017v60.548h13.199v-15.94h87.212c7.519 0 13.366-5.964 13.366-13.382l.167-17.86c0-7.418-6.014-13.35-13.533-13.35m.167 29.054c0 1.136-1.002 2.205-2.004 2.222H21.112v-17.977l85.04.033a2.307 2.307 0 0 1 2.34 2.306zM249.502 490.843c0-7.335-5.848-13.35-13.199-13.35h-85.375c-7.351 0-13.533 5.965-13.533 13.383v33.816c0 7.418 6.182 13.35 13.533 13.35h85.208c7.351 0 13.366-5.965 13.366-13.4zm-13.366 31.66c0 1.153-1.002 2.223-2.005 2.223H152.6c-.835 0-1.838-.752-1.838-1.638v-30.407c0-1.02 1.17-1.871 2.34-1.871l80.863.016c1.17 0 2.172 1.053 2.172 2.29zM540.88 490.81h94.229v-13.316h-96.402c-7.351 0-13.533 5.964-13.533 13.382v33.816c0 7.418 6.015 13.45 13.366 13.45l96.569-.1v-13.316h-94.731c-.835 0-1.67-.736-1.67-1.638v-30.407c0-1.02 1.002-1.871 2.171-1.871M366.955 517.408c7.184-.25 12.865-6.165 12.865-13.433v-13.132c0-7.401-6.015-13.316-13.366-13.35v-.016l-100.913-.017v60.548h13.366v-15.922h74.18c7.352 0 13.367 6.031 13.367 13.45v2.388h13.533v-.167c0-9.022-5.347-16.807-13.032-20.35m-.501-10.86c0 1.136-.836 2.205-2.005 2.222h-85.542v-17.977l85.208.033a2.307 2.307 0 0 1 2.339 2.306zM509.302 515.57c0-7.401-6.015-13.45-13.366-13.45l-85.04.017c-1.17 0-2.172-.852-2.172-2.088v-9.072c0-1.237 1.002-2.156 2.172-2.156h96.401v-11.294H408.39c-7.35 0-13.031 6.115-13.031 13.45v9.072c0 7.434 6.014 13.45 13.366 13.45l85.04-.018c1.17 0 2.172.852 2.172 2.089v9.105c0 1.253-1.002 2.089-2.172 2.089h-96.569v11.31h98.741c7.351 0 13.366-5.997 13.366-13.399zM744.877 477.41v24.627h-81.031V477.41h-13.2v60.548h13.2v-22.605h81.03v22.605h13.367V477.41zM891.902 488.821v-11.31H773.948v60.564h117.954v-11.311H787.313v-13.316h104.589v-11.31H787.313V488.82z" style="fill:#af0342;fill-rule:nonzero;stroke:none;stroke-width:.28299999;stroke-linecap:butt;stroke-linejoin:miter;stroke-miterlimit:3.86400008;stroke-dasharray:none" transform="translate(9.787 -460.642)scale(1.00208)"/></svg>
